weixin/Spring/horse_assets/svgblock_5.svg

<?xml version="1.0" encoding="utf-8"?>
<!-- Generator: Adobe Illustrator 17.0.0, SVG Export Plug-In . SVG Version: 6.00 Build 0)  -->
<!DOCTYPE svg PUBLIC "-//W3C//DTD SVG 1.1//EN" "http://www.w3.org/Graphics/SVG/1.1/DTD/svg11.dtd">
<svg version="1.1" id="图层_1" xmlns="http://www.w3.org/2000/svg" xmlns:xlink="http://www.w3.org/1999/xlink" x="0px" y="0px"
	 width="394px" height="240px" viewBox="0 0 394 240" enable-background="new 0 0 394 240" xml:space="preserve">
<g transform="translate(209.2,117.1)">
	<path fill="#BDF109" d="M-162.35-4.25l4.9,0.3c2.033,0.033,2.733-0.067,2.1-0.3H-162.35z M-181.05-8.8l1.2,0.2v-0.15L-181.05-8.8z
		 M-175.05-15.35l-0.6,0.05l0.45-0.05l-3.95-0.45l3.85,0.65v-0.1h1.8L-175.05-15.35z M-181.25-15.85l0.05-0.2l-4.55-0.25l6.25,0.85
		l0.05-0.15L-181.25-15.85z M-171.25-18c3.1-0.133,4.267-0.3,3.5-0.5l-1.6,0.05v-0.2h-4.2l-1.1,0.15
		c-0.467,0.033-0.7-0.017-0.7-0.15l-6.7,0.35l3,0.45v-0.05C-176.717-17.833-174.117-17.867-171.25-18z M-172.1-14.65l1-0.3
		l-3.35-0.1L-172.1-14.65z M-191.15-10.95l-0.2,0.05l0.7,0.25l0.05-0.1L-191.15-10.95z M-189.55-11l-0.45-0.15l0.5,0.2L-189.55-11
		l3.75,1l3.75-0.45l-4.2-1.25l-0.1-0.05l-3.7,0.55L-189.55-11z M-183.85-9.8l-0.9-0.1l-0.45,0.1l1.7,0.4l5.25,0.35l-0.75-0.2
		l0.85,0.05l-2.8-0.9L-183.85-9.8z M-197.15-14.75l1.8-0.15l0.95-0.45l-3.4,0.55L-197.15-14.75z M-183.2-13.05l-3.5-0.25l4.8,1.4
		l1.05,0.05L-181-11.9l0.1-0.25l2,0.4l4.65,0.4c-2.2-0.433-3.25-0.75-3.15-0.95l-0.8-0.15l-3.45-0.2L-183.2-13.05z M-188.15-13.7
		l0.25,0.05l3.95,0.2v-0.15L-188.15-13.7z M-189.45-14l0.15-0.05l-0.05-0.05l0.1,0.05c1.367-0.167,3.567-0.133,6.6,0.1l-0.45-0.15
		h0.15l-2.2-0.75l-5.95-0.65l-2.55,0.1l-1.3,0.5C-192.95-14.967-191.117-14.667-189.45-14z M-189.15-16.7l1.8-0.1l-4-0.45
		L-189.15-16.7z M-187.55-17.8l-0.45-0.15l-1.45-0.15l7,0.5l-1.25-0.35l-10.5-0.5L-187.55-17.8z M-188.9-17.35l0.05-0.1l-7.1-0.8
		l-3.8,0.6l-2.65,1l6.85-0.85l1.3-0.05l-2-0.2l2.45,0.2c0.3,0.033,0.183-0.017-0.35-0.15s-0.667-0.2-0.4-0.2L-188.9-17.35z
		 M-202.85-16.45c-1.667,0.7-3.2,1.583-4.6,2.65l6.75-0.95c2.5-1.1,5.733-1.65,9.7-1.65l0.1-0.05c-0.133,0-0.2-0.033-0.2-0.1h0.85
		l-6.15-0.7L-202.85-16.45z M108.45-105.55l0.15-1l1.4,1.35l0.7,0.2c-0.467-1.367-1.05-2.6-1.75-3.7l0.3-1.25
		c1.7,0.133,3.767,1.067,6.2,2.8c1.2-1.167,2.05-1.633,2.55-1.4l0.25,0.15c0.033,0.733,0.517,1.383,1.45,1.95
		c0.567,0.333,1.5,0.817,2.8,1.45c-0.467-1.933-0.7-4.05-0.7-6.35c0-2.6,0.333-4.517,1-5.75c0.8,0.633,1.783,1.967,2.95,4
		c0.967,1.633,2.05,2.65,3.25,3.05l1.1-0.5c0.467-0.3,0.7-0.133,0.7,0.5c0.733,0.067,1.05-0.483,0.95-1.65
		c-0.133-1.667-0.167-2.583-0.1-2.75c0.433-0.6,0.817,0.133,1.15,2.2c0.4,2.467,0.917,3.8,1.55,4c0.8-0.1,1.933,0.917,3.4,3.05
		c0.3-0.167,0.7-0.017,1.2,0.45c0.533,0.5,1,1.167,1.4,2l1,2.25l0.85,0.25c0.4-0.067,1.033,0.483,1.9,1.65
		c0.667,0.9,1.15,0.933,1.45,0.1c0.233,0.5,1.033,1.4,2.4,2.7c1.033,1.033,1.617,2.133,1.75,3.3c2.133,2.467,3.75,4.2,4.85,5.2
		l2.5,2.6l6.7,9.85c2.567,4.5,6.05,9.033,10.45,13.6l6,5.2c1.533,1.7,2.733,3.9,3.6,6.6l0.45,2.05c0.067,0.933-0.05,1.55-0.35,1.85
		c-0.467,0.467-0.667,1.333-0.6,2.6c0.1,1.267-0.017,2.083-0.35,2.45l-1.45,2.05c-0.567,0.767-1.217,1.2-1.95,1.3l-6.85,1.2
		l-5.9-0.55c-0.833-0.767-1.4-1.517-1.7-2.25l-0.6-0.9l-0.55-0.55l-1.9-1.2c-0.9-0.433-1.533-0.783-1.9-1.05l-5.9-3.45
		c-1.367-0.6-2.933-1.433-4.7-2.5c-1.5-0.9-2.733-1.5-3.7-1.8l-11-2.7c-1.833-0.333-3.65-0.883-5.45-1.65
		c-0.967-0.367-3.083-1.433-6.35-3.2l-3.8-0.05c-2.3,0.4-4.367,2.183-6.2,5.35l-3.5,7.05l-1.8,5.35l-4.95,9.5
		c-2.067,3.9-3.367,7.217-3.9,9.95c-0.2,1.1-0.233,2.6-0.1,4.5c0.167,2.067,0.2,3.533,0.1,4.4c-0.133,1.033-0.583,2.633-1.35,4.8
		c-0.733,2.167-1.167,3.8-1.3,4.9l-0.4,3.6c0,0.567,0.25,1,0.75,1.3c1.633,0.933,3.017,1.833,4.15,2.7
		c2.033,1.467,5.367,3.45,10,5.95c4.9,2.6,8.433,4.65,10.6,6.15l5.7,4.4c1.2,0.967,2.067,1.783,2.6,2.45c0.767,0.933,1.3,2,1.6,3.2
		c0.267,0.967,0.483,2.4,0.65,4.3c0.2,2,0.433,3.667,0.7,5c1.067,5.067,1.9,10.517,2.5,16.35l0.7,3.55
		c0.3,1.067,0.417,2.083,0.35,3.05c-0.033,0.933-0.217,1.533-0.55,1.8l-5.4,2.7c-1.233,0.667-2.917,1.983-5.05,3.95l-4.6,5.8
		c-2.633,3.1-4.417,4.333-5.35,3.7c-2.1-1.4-3.283-3.9-3.55-7.5c-0.233-3.367,0.383-6.25,1.85-8.65
		c0.733-1.367,2.417-1.983,5.05-1.85c3.033,0.133,4.95-0.05,5.75-0.55c0.7-0.667,1.017-1.267,0.95-1.8l-0.6-1.8
		c-0.067-0.3,0.1-1.017,0.5-2.15l1.1-3.7V49.8c-0.067-3.9-0.533-7.25-1.4-10.05c-1.1-3.6-2.933-6.617-5.5-9.05l-0.75-0.8
		c-0.667-0.5-2.033-1.233-4.1-2.2l-11.35-0.45l-12.25,0.8c1.933,2.133,3.45,3.683,4.55,4.65c0.9,0.8,2.533,1.833,4.9,3.1
		c2.233,1.5,3.983,3.467,5.25,5.9l0.2,1.3l0.15,3.25l-0.1,0.05c0,0.9-0.183,1.85-0.55,2.85c-0.933,0.967-2.483,2.083-4.65,3.35
		l-4.95,3c-1.433,1-3.85,3.2-7.25,6.6l-7.15,7.05c-0.833,0.733-1.583,1.117-2.25,1.15L63.7,68.5l-5.15,0.85l-8.9-0.15
		c-0.033-1.233,0.3-2.55,1-3.95c0.8-1.633,1.95-3.317,3.45-5.05c1.8-2.067,3.5-3.483,5.1-4.25c1.533,0.267,3.267,1.283,5.2,3.05
		c1.967,1.833,3.667,2.9,5.1,3.2c1.333,0.067,2.233-0.533,2.7-1.8l1.35-3c3.3,0,6.983-1.167,11.05-3.5
		c3.833-2.167,6.783-4.617,8.85-7.35c-1.467-1.167-3.967-2.233-7.5-3.2l-8.7-2.45l-11.3-4.95c-2.867-1.333-5.067-2.2-6.6-2.6
		c-2.5-0.6-5.3-1.583-8.4-2.95c-2.5-1.1-4.667-2.217-6.5-3.35c-11.067,3.6-24.017,3.733-38.85,0.4l-19.25-4.7
		c-7.933-1.867-15.05-3.033-21.35-3.5l-3.95,4.6c-1.167,1.367-2.583,3.467-4.25,6.3l-2.05,4.9l-0.15,0.45
		c-0.2,0.933-0.183,2.633,0.05,5.1l1,6.45c1.367,3.733,5.183,7.533,11.45,11.4l7.95,4.7c3.067,1.867,5.467,3.533,7.2,5l0.65,0.95
		l2.45,2.05l7.3,4.5c3.967,2.633,6.95,5.25,8.95,7.85c-1.967,2.8-4.983,4.317-9.05,4.55c-3.467,0.2-6.95-0.467-10.45-2
		c-0.633-0.667-0.917-1.817-0.85-3.45c0.033-1.467-0.65-2.65-2.05-3.55c-0.567-0.2-1.25,0-2.05,0.6
		c-0.967,0.733-1.867,1.133-2.7,1.2c-0.567,0.067-1.417-0.65-2.55-2.15l-3.05-4.45l-0.05,0.05c-0.6-0.9-1.3-1.75-2.1-2.55
		c-2.667-2.667-6.033-5.55-10.1-8.65l-5.3-3.85l-7.35-7.3l-2.3,2.95c-2.033,4.467-2.433,9.717-1.2,15.75
		c1.133,5.433,3.417,10.717,6.85,15.85l2.3,3.8l3.85,4.45c1.8,1.933,2.933,3.45,3.4,4.55c0.367,0.833,0.283,2.183-0.25,4.05
		c-0.433,1.6-0.217,2.75,0.65,3.45c4.567,3.667,7.533,7.017,8.9,10.05c1.3,2.8,0.95,4.583-1.05,5.35
		c-2.2,0.833-5.267,0.883-9.2,0.15c-4.267-0.8-6.85-2.2-7.75-4.2c0.367-0.9,0.683-2.167,0.95-3.8c0.233-1.633,0.533-2.9,0.9-3.8
		c0.167-2.1-0.25-3.083-1.25-2.95l-3.35,0.1l-0.95-4.25c-0.333-1.8-0.733-3.217-1.2-4.25l-5-9.15c-1.133-2.533-2.533-4.783-4.2-6.75
		l-3.95-4.95c-5.1-6.267-8.45-10.783-10.05-13.55c-2.6-4.5-3-9.083-1.2-13.75l3.2-8.3c0.333-1.3,0.6-4.633,0.8-10
		c-0.933-2.2-1.567-3.517-1.9-3.95c-0.967-1.367-3.017-3.35-6.15-5.95l-7.6-6.95c-2.967-2.933-4.75-4.933-5.35-6
		c-1.367-2.4-2.583-5.35-3.65-8.85c-1.333-4.2-2.017-7.95-2.05-11.25c-0.3-4.033,0.4-9.283,2.1-15.75l-7.8,5.4
		c-4,2.867-6.583,4.7-7.75,5.5l-2.2,1.3l-5.7,5.05c-3.167,2.3-6.817,4.117-10.95,5.45c-3.6,1.1-7.517,1.75-11.75,1.95
		c-3.467,0.2-7.333,0.1-11.6-0.3l-5.95-0.6c-3.1-0.767-6.65-1.35-10.65-1.75l-1.75-0.5l-8.85-0.85l2.65,0.15
		c0.3,0,0.167-0.05-0.4-0.15c-0.6-0.133-0.75-0.2-0.45-0.2l6.2,0.6l0.05-0.15l-7.15-0.7c-2.867-0.267-3.75-0.433-2.65-0.5l11.3,0.95
		l-0.55-0.2l11.55,1.35l0.05-0.1l-1.8-0.25v-0.2l-9.35-1.45l-2.95-0.9l-4.85,0.55l2.35-0.4c0.233-0.033,0.1-0.067-0.4-0.1
		c-0.567,0-0.717-0.033-0.45-0.1l2.35-0.25l-0.3-0.05l-5.15,0.6c-0.3,0.033-0.317-0.017-0.05-0.15l3.95-0.8l-1.8-0.5h-0.15
		l-0.85-0.2l-1.25,0.1l1.2-0.2h-0.1l-3.2-0.2c-1.1,0.467-2.7,1.333-4.8,2.6c1.3-0.967,2.767-1.833,4.4-2.6l-6.4-0.2h6.75l0.8-0.3
		l-3.85-1.5l-3.25,0.9l2.95-0.95l-6.3-0.45h2.75c0.3,0,0.15-0.05-0.45-0.15c-0.6-0.067-0.75-0.117-0.45-0.15l5.1,0.55l0.2-0.05
		l-9-0.9c-0.6-0.1-0.6-0.15,0-0.15c3.767-0.2,6.9,0.033,9.4,0.7l-2-0.6l2.65,0.7l3.4-0.6l-1.25-0.4l-1.35-0.75l-1,0.2l0.95-0.25
		l-0.8-0.35l-1.85,0.3c-0.267,0.067-0.267,0.017,0-0.15l1.05-0.35l-4.4-0.3l0.95-0.1c0.233-0.033,0.167-0.067-0.2-0.1l-0.7-0.15
		h-0.65l-2.3,1.4l2.1-1.4l-0.25-0.05l-0.7-0.05c-1.467,0.067-1.867,0.017-1.2-0.15h-1.65l-1.4,0.4c-0.2,0.033-0.15-0.033,0.15-0.2
		l0.3-0.15l-6.4,0.75l-1.6,1.35l1.4-1.3l-0.55,0.1l0.6-0.15c1.267-1.033,2.583-1.883,3.95-2.55l-1.7,0.4l1.95-0.5
		c1.867-0.9,4-1.6,6.4-2.1c-1.367-0.3-1.567-0.4-0.6-0.3l1.6,0.15l8.8-0.25l5.1,0.55l5.35-0.35l-2.95-0.15v-0.2l2.15,0.05
		l-16.55-1.65c-0.633-0.067-0.883-0.167-0.75-0.3l-2.2-0.3c-0.833-0.133-1.783-0.133-2.85,0l-4.7,0.95l5.1-1.2l15.05,1.3
		c6.467,0.433,12.45,0.417,17.95-0.05c5.433-1.133,10.683-2.65,15.75-4.55l3.85-1.55c-0.333,0.033-0.417,0-0.25-0.1l0.8-0.4
		l24.1-9.05l-0.05-0.1l2-0.65l0.05,0.1l1.5-0.35v0.1l4.1-1.2l0.05,0.15l2.75-0.8v0.15c0.002-0.1,0.235-0.2,0.7-0.3l6.75-1.3l6-0.5
		l-0.5,0.35c-0.2,0.133-0.017,0.2,0.55,0.2l4.05,0.35c2.2-1.4,4.817-3.4,7.85-6l7.55-6.25c6.133-4.667,12.6-7.2,19.4-7.6
		c3.833-0.2,8.633,0.317,14.4,1.55l13.95,2.9l26.55,1.75c4.533,0.367,9.1,0.25,13.7-0.35c4.733-0.633,9.033-1.7,12.9-3.2
		c2.6-1,6.317-2.9,11.15-5.7c4.633-2.267,9.483-3.317,14.55-3.15c0.4-0.667,0.267-1.483-0.4-2.45c-0.5-0.667-0.367-1.033,0.4-1.1
		l5.75-0.4c1.733-0.533,2.767-1.583,3.1-3.15c-0.1-0.867-0.9-1.4-2.4-1.6c-1.7-0.2-2.683-0.55-2.95-1.05
		c1.5-0.633,3.433-0.95,5.8-0.95c2.333,0,4.25,0.317,5.75,0.95c0.133-0.5-0.083-1.2-0.65-2.1c-0.267-0.433,0.233-0.617,1.5-0.55
		c2.333,0.9,4.3,1.4,5.9,1.5c2.2,0.167,4.083-0.333,5.65-1.5c0.267-0.933-0.283-1.633-1.65-2.1c-1.8-0.6-2.967-1.267-3.5-2
		c1.067,0.1,2.517,0.117,4.35,0.05l4.35-0.4c0.333-0.833,2.167-1.817,5.5-2.95c2.333-0.8,2.5-2.183,0.5-4.15l-2.3-1.7
		c-1-0.7-1.65-1.3-1.95-1.8l5.7,0.35c0.2,0.033,0.6-0.117,1.2-0.45l7.25-0.8l1.1,0.25l-0.8-0.35c-1.6-0.7-2.633-1.333-3.1-1.9
		l2.15,0.6l3.35-0.35c1.067-0.367,1.817-0.7,2.25-1l1.95-1.6l2.45-1.1c-1.367-0.9-3.35-1.2-5.95-0.9
		c0.767-1.167,2.167-1.783,4.2-1.85c2.033-0.033,3.583,0.483,4.65,1.55l1.25-0.4l-0.6-0.7l-2.35-0.1
		c-0.633-0.067-0.667-0.217-0.1-0.45l1.2-0.15c0.533-0.7,1.217-0.9,2.05-0.6l0.1-0.9c-0.567-0.267-0.783-0.833-0.65-1.7
		L108.45-105.55z"/>
</g>
</svg>

<?xml version="1.0"?>
<!DOCTYPE svg PUBLIC "-//W3C//DTD SVG 1.1//EN" "http://www.w3.org/Graphics/SVG/1.1/DTD/svg11.dtd">
<svg version='1.1' width='394px' height='240px' xmlns='http://www.w3.org/2000/svg' xmlns:xlink='http://www.w3.org/1999/xlink'>
	<g transform="translate(209.2,117.1)">
		<path d="M -162.35 -4.25 L -157.45 -3.95 Q -154.4 -3.9 -155.35 -4.25 Z M -181.05 -8.8 L -179.85 -8.6 L -179.85 -8.75 Z M -175.05 -15.35 L -175.65 -15.3 L -175.2 -15.35 L -179.15 -15.8 L -175.3 -15.15 L -175.3 -15.25 L -173.5 -15.25 Z M -181.25 -15.85 L -181.2 -16.05 L -185.75 -16.3 L -179.5 -15.45 L -179.45 -15.6 Z M -171.25 -18 Q -166.6 -18.2 -167.75 -18.5 L -169.35 -18.45 L -169.35 -18.65 L -173.55 -18.65 L -174.65 -18.5 Q -175.35 -18.45 -175.35 -18.65 L -182.05 -18.3 L -179.05 -17.85 L -179.05 -17.9 Q -175.55 -17.8 -171.25 -18 Z M -172.1 -14.65 L -171.1 -14.95 L -174.45 -15.05 Z M -191.15 -10.95 L -191.35 -10.9 L -190.65 -10.65 L -190.6 -10.75 Z M -189.55 -11 L -190 -11.15 L -189.5 -10.95 L -189.55 -11 L -185.8 -10 L -182.05 -10.45 L -186.25 -11.7 L -186.35 -11.75 L -190.05 -11.2 Z M -183.85 -9.8 L -184.75 -9.9 L -185.2 -9.8 L -183.5 -9.4 L -178.25 -9.05 L -179 -9.25 L -178.15 -9.2 L -180.95 -10.1 Z M -197.15 -14.75 L -195.35 -14.9 L -194.4 -15.35 L -197.8 -14.8 Z M -183.2 -13.05 L -186.7 -13.3 L -181.9 -11.9 L -180.85 -11.85 L -181 -11.9 L -180.9 -12.15 L -178.9 -11.75 L -174.25 -11.35 Q -177.55 -12 -177.4 -12.3 L -178.2 -12.45 L -181.65 -12.65 Z M -188.15 -13.7 L -187.9 -13.65 L -183.95 -13.45 L -183.95 -13.6 Z M -189.45 -14 L -189.3 -14.05 L -189.35 -14.1 L -189.25 -14.05 Q -187.2 -14.3 -182.65 -13.95 L -183.1 -14.1 L -182.95 -14.1 L -185.15 -14.85 L -191.1 -15.5 L -193.65 -15.4 L -194.95 -14.9 Q -191.95 -15 -189.45 -14 Z M -189.15 -16.7 L -187.35 -16.8 L -191.35 -17.25 Z M -187.55 -17.8 L -188 -17.95 L -189.45 -18.1 L -182.45 -17.6 L -183.7 -17.95 L -194.2 -18.45 Z M -188.9 -17.35 L -188.85 -17.45 L -195.95 -18.25 L -199.75 -17.65 L -202.4 -16.65 L -195.55 -17.5 L -194.25 -17.55 L -196.25 -17.75 L -193.8 -17.55 Q -193.35 -17.5 -194.15 -17.7 Q -194.95 -17.9 -194.55 -17.9 Z M -202.85 -16.45 Q -205.35 -15.4 -207.45 -13.8 L -200.7 -14.75 Q -196.95 -16.4 -191 -16.4 L -190.9 -16.45 Q -191.1 -16.45 -191.1 -16.55 L -190.25 -16.55 L -196.4 -17.25 Z M 108.45 -105.55 L 108.6 -106.55 L 110 -105.2 L 110.7 -105 Q 110 -107.05 108.95 -108.7 L 109.25 -109.95 Q 111.8 -109.75 115.45 -107.15 Q 117.25 -108.9 118 -108.55 L 118.25 -108.4 Q 118.3 -107.3 119.7 -106.45 Q 120.55 -105.95 122.5 -105 Q 121.8 -107.9 121.8 -111.35 Q 121.8 -115.25 122.8 -117.1 Q 124 -116.15 125.75 -113.1 Q 127.2 -110.65 129 -110.05 L 130.1 -110.55 Q 130.8 -111 130.8 -110.05 Q 131.9 -109.95 131.75 -111.7 Q 131.55 -114.2 131.65 -114.45 Q 132.3 -115.35 132.8 -112.25 Q 133.4 -108.55 134.35 -108.25 Q 135.55 -108.4 137.75 -105.2 Q 138.2 -105.45 138.95 -104.75 Q 139.75 -104 140.35 -102.75 L 141.35 -100.5 L 142.2 -100.25 Q 142.8 -100.35 144.1 -98.6 Q 145.1 -97.25 145.55 -98.5 Q 145.9 -97.75 147.95 -95.8 Q 149.5 -94.25 149.7 -92.5 Q 152.9 -88.8 154.55 -87.3 L 157.05 -84.7 L 163.75 -74.85 Q 167.6 -68.1 174.2 -61.25 L 180.2 -56.05 Q 182.5 -53.5 183.8 -49.45 L 184.25 -47.4 Q 184.35 -46 183.9 -45.55 Q 183.2 -44.85 183.3 -42.95 Q 183.45 -41.05 182.95 -40.5 L 181.5 -38.45 Q 180.65 -37.3 179.55 -37.15 L 172.7 -35.95 L 166.8 -36.5 Q 165.55 -37.65 165.1 -38.75 L 164.5 -39.65 L 163.95 -40.2 L 162.05 -41.4 Q 160.7 -42.05 160.15 -42.45 L 154.25 -45.9 Q 152.2 -46.8 149.55 -48.4 Q 147.3 -49.75 145.85 -50.2 L 134.85 -52.9 Q 132.1 -53.4 129.4 -54.55 Q 127.95 -55.1 123.05 -57.75 L 119.25 -57.8 Q 115.8 -57.2 113.05 -52.45 L 109.55 -45.4 L 107.75 -40.05 L 102.8 -30.55 Q 99.7 -24.7 98.9 -20.6 Q 98.6 -18.95 98.8 -16.1 Q 99.05 -13 98.9 -11.7 Q 98.7 -10.15 97.55 -6.9 Q 96.45 -3.65 96.25 -2 L 95.85 1.6 Q 95.85 2.45 96.6 2.9 Q 99.05 4.3 100.75 5.6 Q 103.8 7.8 110.75 11.55 Q 118.1 15.45 121.35 17.7 L 127.05 22.1 Q 128.85 23.55 129.65 24.55 Q 130.8 25.95 131.25 27.75 Q 131.65 29.2 131.9 32.05 Q 132.2 35.05 132.6 37.05 Q 134.2 44.65 135.1 53.4 L 135.8 56.95 Q 136.25 58.55 136.15 60 Q 136.1 61.4 135.6 61.8 L 130.2 64.5 Q 128.35 65.5 125.15 68.45 L 120.55 74.25 Q 116.6 78.9 115.2 77.95 Q 112.05 75.85 111.65 70.45 Q 111.3 65.4 113.5 61.8 Q 114.6 59.75 118.55 59.95 Q 123.1 60.15 124.3 59.4 Q 125.35 58.4 125.25 57.6 L 124.65 55.8 Q 124.55 55.35 125.15 53.65 L 126.25 49.95 L 126.25 49.8 Q 126.15 43.95 124.85 39.75 Q 123.2 34.35 119.35 30.7 L 118.6 29.9 Q 117.6 29.15 114.5 27.7 L 103.15 27.25 L 90.9 28.05 Q 93.8 31.25 95.45 32.7 Q 96.8 33.9 100.35 35.8 Q 103.7 38.05 105.6 41.7 L 105.8 43 L 105.95 46.25 L 105.85 46.3 Q 105.85 47.65 105.3 49.15 Q 103.9 50.6 100.65 52.5 L 95.7 55.5 Q 93.55 57 88.45 62.1 L 81.3 69.15 Q 80.05 70.25 79.05 70.3 L 63.7 68.5 L 58.55 69.35 L 49.65 69.2 Q 49.6 67.35 50.65 65.25 Q 51.85 62.8 54.1 60.2 Q 56.8 57.1 59.2 55.95 Q 61.5 56.35 64.4 59 Q 67.35 61.75 69.5 62.2 Q 71.5 62.3 72.2 60.4 L 73.55 57.4 Q 78.5 57.4 84.6 53.9 Q 90.35 50.65 93.45 46.55 Q 91.25 44.8 85.95 43.35 L 77.25 40.9 L 65.95 35.95 Q 61.65 33.95 59.35 33.35 Q 55.6 32.45 50.95 30.4 Q 47.2 28.75 44.45 27.05 Q 27.85 32.45 5.6 27.45 L -13.65 22.75 Q -25.55 19.95 -35 19.25 L -38.95 23.85 Q -40.7 25.9 -43.2 30.15 L -45.25 35.05 L -45.4 35.5 Q -45.7 36.9 -45.35 40.6 L -44.35 47.05 Q -42.3 52.65 -32.9 58.45 L -24.95 63.15 Q -20.35 65.95 -17.75 68.15 L -17.1 69.1 L -14.65 71.15 L -7.35 75.65 Q -1.4 79.6 1.6 83.5 Q -1.35 87.7 -7.45 88.05 Q -12.65 88.35 -17.9 86.05 Q -18.85 85.05 -18.75 82.6 Q -18.7 80.4 -20.8 79.05 Q -21.65 78.75 -22.85 79.65 Q -24.3 80.75 -25.55 80.85 Q -26.4 80.95 -28.1 78.7 L -31.15 74.25 L -31.2 74.3 Q -32.1 72.95 -33.3 71.75 Q -37.3 67.75 -43.4 63.1 L -48.7 59.25 L -56.05 51.95 L -58.35 54.9 Q -61.4 61.6 -59.55 70.65 Q -57.85 78.8 -52.7 86.5 L -50.4 90.3 L -46.55 94.75 Q -43.85 97.65 -43.15 99.3 Q -42.6 100.55 -43.4 103.35 Q -44.05 105.75 -42.75 106.8 Q -35.9 112.3 -33.85 116.85 Q -31.9 121.05 -34.9 122.2 Q -38.2 123.45 -44.1 122.35 Q -50.5 121.15 -51.85 118.15 Q -51.3 116.8 -50.9 114.35 Q -50.55 111.9 -50 110.55 Q -49.75 107.4 -51.25 107.6 L -54.6 107.7 L -55.55 103.45 Q -56.05 100.75 -56.75 99.2 L -61.75 90.05 Q -63.45 86.25 -65.95 83.3 L -69.9 78.35 Q -77.55 68.95 -79.95 64.8 Q -83.85 58.05 -81.15 51.05 L -77.95 42.75 Q -77.45 40.8 -77.15 32.75 Q -78.55 29.45 -79.05 28.8 Q -80.5 26.75 -85.2 22.85 L -92.8 15.9 Q -97.25 11.5 -98.15 9.9 Q -100.2 6.3 -101.8 1.05 Q -103.8 -5.25 -103.85 -10.2 Q -104.3 -16.25 -101.75 -25.95 L -109.55 -20.55 Q -115.55 -16.25 -117.3 -15.05 L -119.5 -13.75 L -125.2 -8.7 Q -129.95 -5.25 -136.15 -3.25 Q -141.55 -1.6 -147.9 -1.3 Q -153.1 -1 -159.5 -1.6 L -165.45 -2.2 Q -170.1 -3.35 -176.1 -3.95 L -177.85 -4.45 L -186.7 -5.3 L -184.05 -5.15 Q -183.6 -5.15 -184.45 -5.3 Q -185.35 -5.5 -184.9 -5.5 L -178.7 -4.9 L -178.65 -5.05 L -185.8 -5.75 Q -190.1 -6.15 -188.45 -6.25 L -177.15 -5.3 L -177.7 -5.5 L -166.15 -4.15 L -166.1 -4.25 L -167.9 -4.5 L -167.9 -4.7 L -177.25 -6.15 L -180.2 -7.05 L -185.05 -6.5 L -182.7 -6.9 Q -182.35 -6.95 -183.1 -7 Q -183.95 -7 -183.55 -7.1 L -181.2 -7.35 L -181.5 -7.4 L -186.65 -6.8 Q -187.1 -6.75 -186.7 -6.95 L -182.75 -7.75 L -184.55 -8.25 L -184.7 -8.25 L -185.55 -8.45 L -186.8 -8.35 L -185.6 -8.55 L -185.7 -8.55 L -188.9 -8.75 Q -190.55 -8.05 -193.7 -6.15 Q -191.75 -7.6 -189.3 -8.75 L -195.7 -8.95 L -188.95 -8.95 L -188.15 -9.25 L -192 -10.75 L -195.25 -9.85 L -192.3 -10.8 L -198.6 -11.25 L -195.85 -11.25 Q -195.4 -11.25 -196.3 -11.4 Q -197.2 -11.5 -196.75 -11.55 L -191.65 -11 L -191.45 -11.05 L -200.45 -11.95 Q -201.35 -12.1 -200.45 -12.1 Q -194.8 -12.4 -191.05 -11.4 L -193.05 -12 L -190.4 -11.3 L -187 -11.9 L -188.25 -12.3 L -189.6 -13.05 L -190.6 -12.85 L -189.65 -13.1 L -190.45 -13.45 L -192.3 -13.15 Q -192.7 -13.05 -192.3 -13.3 L -191.25 -13.65 L -195.65 -13.95 L -194.7 -14.05 Q -194.35 -14.1 -194.9 -14.15 L -195.6 -14.3 L -196.25 -14.3 L -198.55 -12.9 L -196.45 -14.3 L -196.7 -14.35 L -197.4 -14.4 Q -199.6 -14.3 -198.6 -14.55 L -200.25 -14.55 L -201.65 -14.15 Q -201.95 -14.1 -201.5 -14.35 L -201.2 -14.5 L -207.6 -13.75 L -209.2 -12.4 L -207.8 -13.7 L -208.35 -13.6 L -207.75 -13.75 Q -205.85 -15.3 -203.8 -16.3 L -205.5 -15.9 L -203.55 -16.4 Q -200.75 -17.75 -197.15 -18.5 Q -199.2 -18.95 -197.75 -18.8 L -196.15 -18.65 L -187.35 -18.9 L -182.25 -18.35 L -176.9 -18.7 L -179.85 -18.85 L -179.85 -19.05 L -177.7 -19 L -194.25 -20.65 Q -195.2 -20.75 -195 -20.95 L -197.2 -21.25 Q -198.45 -21.45 -200.05 -21.25 L -204.75 -20.3 L -199.65 -21.5 L -184.6 -20.2 Q -174.9 -19.55 -166.65 -20.25 Q -158.5 -21.95 -150.9 -24.8 L -147.05 -26.35 Q -147.55 -26.3 -147.3 -26.45 L -146.5 -26.85 L -122.4 -35.9 L -122.45 -36 L -120.45 -36.65 L -120.4 -36.55 L -118.9 -36.9 L -118.9 -36.8 L -114.8 -38 L -114.75 -37.85 L -112 -38.65 L -112 -38.5 Q -111.997 -38.6506 -111.3 -38.8 L -104.55 -40.1 L -98.55 -40.6 L -99.05 -40.25 Q -99.35 -40.05 -98.5 -40.05 L -94.45 -39.7 Q -91.15 -41.8 -86.6 -45.7 L -79.05 -51.95 Q -69.85 -58.95 -59.65 -59.55 Q -53.9 -59.85 -45.25 -58 L -31.3 -55.1 L -4.75 -53.35 Q 2.05 -52.8 8.95 -53.7 Q 16.05 -54.65 21.85 -56.9 Q 25.75 -58.4 33 -62.6 Q 39.95 -66 47.55 -65.75 Q 48.15 -66.75 47.15 -68.2 Q 46.4 -69.2 47.55 -69.3 L 53.3 -69.7 Q 55.9 -70.5 56.4 -72.85 Q 56.25 -74.15 54 -74.45 Q 51.45 -74.75 51.05 -75.5 Q 53.3 -76.45 56.85 -76.45 Q 60.35 -76.45 62.6 -75.5 Q 62.8 -76.25 61.95 -77.6 Q 61.55 -78.25 63.45 -78.15 Q 66.95 -76.8 69.35 -76.65 Q 72.65 -76.4 75 -78.15 Q 75.4 -79.55 73.35 -80.25 Q 70.65 -81.15 69.85 -82.25 Q 71.45 -82.1 74.2 -82.2 L 78.55 -82.6 Q 79.05 -83.85 84.05 -85.55 Q 87.55 -86.75 84.55 -89.7 L 82.25 -91.4 Q 80.75 -92.45 80.3 -93.2 L 86 -92.85 Q 86.3 -92.8 87.2 -93.3 L 94.45 -94.1 L 95.55 -93.85 L 94.75 -94.2 Q 92.35 -95.25 91.65 -96.1 L 93.8 -95.5 L 97.15 -95.85 Q 98.75 -96.4 99.4 -96.85 L 101.35 -98.45 L 103.8 -99.55 Q 101.75 -100.9 97.85 -100.45 Q 99 -102.2 102.05 -102.3 Q 105.1 -102.35 106.7 -100.75 L 107.95 -101.15 L 107.35 -101.85 L 105 -101.95 Q 104.05 -102.05 104.9 -102.4 L 106.1 -102.55 Q 106.9 -103.6 108.15 -103.15 L 108.25 -104.05 Q 107.4 -104.45 107.6 -105.75 Z" fill="#FAF643"/>
	</g>
</svg>
